storage/app/icons/phosphoricons/fill/three-d-fill.svg

<svg xmlns="http://www.w3.org/2000/svg" fill="currentColor" viewBox="0 0 256 256"><path d="M184 128a32 32 0 0 1-32 32h-8V96h8a32 32 0 0 1 32 32m48-72v144a16 16 0 0 1-16 16H40a16 16 0 0 1-16-16V56a16 16 0 0 1 16-16h176a16 16 0 0 1 16 16m-120 88a32 32 0 0 0-18.31-28.92L110.4 92.8A8 8 0 0 0 104 80H64a8 8 0 0 0 0 16h24l-14.4 19.2A8 8 0 0 0 80 128a16 16 0 1 1-10.66 27.93 8 8 0 1 0-10.68 11.92A32 32 0 0 0 112 144m88-16a48.05 48.05 0 0 0-48-48h-16a8 8 0 0 0-8 8v80a8 8 0 0 0 8 8h16a48.05 48.05 0 0 0 48-48"/></svg>

<svg xmlns="http://www.w3.org/2000/svg" viewBox="0 0 256 256" fill="currentColor"><path d="M184,128a32,32,0,0,1-32,32h-8V96h8A32,32,0,0,1,184,128Zm48-72V200a16,16,0,0,1-16,16H40a16,16,0,0,1-16-16V56A16,16,0,0,1,40,40H216A16,16,0,0,1,232,56ZM112,144a32,32,0,0,0-18.31-28.92L110.4,92.8A8,8,0,0,0,104,80H64a8,8,0,0,0,0,16H88L73.6,115.2A8,8,0,0,0,80,128a16,16,0,1,1-10.66,27.93,8,8,0,1,0-10.68,11.92A32,32,0,0,0,112,144Zm88-16a48.05,48.05,0,0,0-48-48H136a8,8,0,0,0-8,8v80a8,8,0,0,0,8,8h16A48.05,48.05,0,0,0,200,128Z"/></svg>
